!!!OTL: 494. Lebewohl!
!!!ODT: 1820 (um)
!!!ARE: Europa, Mitteleuropa, Deutschland, Weimar
!!!SCT: B0494
!!!TXL: @@DE
!!!YEM: Copyright 1995, estate of Helmut Schaffrath.
**kern	**text
*ICvox	*
*Ivox	*
*clefG2	*
*M4/4	*
*met(c)	*
*k[b-]	*
*F:	*
!LO:TX:a:t=Langſam.	!
{8a	Le-
8b-	-be
=1	=1
4.cc	wohl,
8ff	ver-
4g	-giß
4cc	mein
=2	=2
4f	nicht!
4r	.
4r}	.
{8a	Schen-
8f	-ke
=3	=3
8fL	mir
8eJ	.
4e	dein
4.cc	An-
8e	-ge-
=4	=4
8gL	-den-
8fJ	.
4f	-ken:
4r}	.
{8a	Lie-
8f	-be
=5	=5
8fL	darfſt
8eJ	.
4e	du
4.cc	mir
8e	nicht
=6	=6
8gL	ſchen-
8fJ	.
4f	-ken,
4r}	.
{8f	denn
8f	das
=7	=7
4.dd	Schick-
8dd	-ſal
4cc	will
8ddL	es
8eeJ	.
=8	=8
4ff	nicht,
4r	.
2r}	.
=9	=9
{4cc	denn
4ff	das
4.dd	Schick-
8dd	-ſal
=10	=10
4cc	will
4e	es
4f}	nicht.
==	==
!!!AGN: Abschieds - Lied
!!!GTL: Abschiedslieder
!!!ONB: ESAC (Essen Associative Code) Database: BOEHME
!!!AMT: simple quadruple
!!!AIN: vox
!!!EED: Helmut Schaffrath
!!!EEV: 1.0
!!Mel. auf einem geſchr. alten Notenbl. um 1820, ſo auch in Weimar 1840 geſungen.
!!@@COMMENT:"Gedicht ʒuerſt in Schillers Muſenalmanach f. 1798 S. 303, unterʒeichnet Cordes; ob Joh.
!!Friedrich C. (wie Hoffmann annimmt) oder Franʒ C. (wie Goedecke, Grundr, ſagt) bleibt fraglich.
!!Das Lied wurde Anfangs unſers Jahrh. bis 1850 viel geſungen und ʒwar nach einer Mel. von
!!F. L. Seidel (vor 1804), Fr. H. v. Dalberg (Bdur */, Takt), F. A. Mendel vor 1810, Friedt.
!!Glück um 1814: "Acht Lieder mit Begl. des Pianof. Leipʒig, Breitkopf u. Härtel. S. 5."
!!@@END:
!!!URL-scan: https://archive.org/details/BoehmeVtLieder1895/page/n395/mode/2up
!!!ENC: Anna Maria Matuszewska
!!!EEV: 2024/10/07
*-	*-
